X:1
T:Title
%%score { ( 1 2 ) | ( 3 4 ) }
L:1/8
M:9/8
K:D
V:1 treble nm="Grand Piano"
V:2 treble 
V:3 bass 
V:4 bass 
V:1
 z3 z3[Q:1/4=119] z EF | [FA]3 [FA]3 [EG][DF][CE] | F3 D3 z EF | [FA]3 [FA]3 [GB]A[A,DF] | %4
[M:3/4][K:bass] [A,CE]6 |[M:3/8] D2[K:treble] z |[M:9/8] [FA]3 [FA]3 [EG][DF][CE] | F3 D3 FA[Fd] | %8
 [Ec]3 [Ec]3 [Fd][Ec][DB] |[M:3/4] [CA]6 |[M:3/8] AB[Gc] |[M:9/8] [Fd]3 [Fd]3 edB | %12
 [FA]3 F3 z F[FA] | [Fd]3 [Fd]3 dcB |[M:3/4] [Ec]6 |[M:3/8] AB[Gc] |[M:9/8] [Fd]3 [Fd]3 edB | %17
 [FA]3 F3 Bcd | %18
 A3- A2 d [Ec][Fd][Ge][Q:1/4=115][Q:1/4=111][Q:1/4=107][Q:1/4=104][Q:1/4=100][Q:1/4=96][Q:1/4=93] | %19
[M:3/4] [Fd]6 |] %20
V:2
 z3 z3 .D3 | x9 | z3 z3 .D3 | x9 |[M:3/4][K:bass] x6 |[M:3/8] F,[K:treble]EF |[M:9/8] x9 | x9 | %8
 x9 |[M:3/4] x6 |[M:3/8] G2 z |[M:9/8] x9 | z3 z3 .D3 | x9 |[M:3/4] x6 |[M:3/8] G2 z |[M:9/8] x9 | %17
 x9 | x9 |[M:3/4] x6 |] %20
V:3
 z3 z3 F,G,[D,A,D] | [D,D]3 [D,A,]3 [A,,A,]2 [A,,A,] | [D,A,D]3 [D,F,]3 F,G,[D,A,D] | %3
 [D,D]3 [D,D]3 z FD, |[M:3/4] A,,6 |[M:3/8] z G,[D,A,D] |[M:9/8] [D,D]3 [D,A,]3 [A,,A,]2 [A,,A,] | %7
 [D,A,D]3 [D,F,]3 [A,D][DF][D,A,] | [E,A,]3 [E,A,]3 [E,^G,]2 [E,G,] |[M:3/4] [A,,A,]6 | %10
[M:3/8] [A,,A,]2 [A,,A,] |[M:9/8] [D,A,]3 [D,=C]3[K:treble] [G,B,G]2 [G,DG] | %12
 [D,D]3 [D,A,D]3 F,A,[D,F,] | [B,,B,]3 [B,,B,]3 [E,^G,E]2 [E,G,E] |[M:3/4] [A,,A,]6 | %15
[M:3/8] [A,,A,]2 [A,,A,] |[M:9/8] [D,A,]3 [D,=C]3[K:treble] [G,B,G]2 [G,DG] | %17
 z3 z3 .[G,D]3[K:treble] | [A,DF]3- [A,DF]2 [A,F][K:bass] [A,,A,]2 [A,,C] |[M:3/4] [D,D]6 |] %20
V:4
 z3 z3 .D,3 | x9 | z3 z3 .D,3 | z3 z3 .[D,D]3 |[M:3/4] x6 |[M:3/8] D,2 z |[M:9/8] x9 | z3 z3 .D,3 | %8
 x9 |[M:3/4] x6 |[M:3/8] x3 |[M:9/8] x6[K:treble] x3 | z3 z3 .D,3 | x9 |[M:3/4] x6 |[M:3/8] x3 | %16
[M:9/8] x6[K:treble] x3 | [D,D]3 [D,A,D]3 z A,[K:treble][G,B,G] | x6[K:bass] x3 |[M:3/4] x6 |] %20

